X:506
T:Williamson's Hornpipe
C:Traditional
N:Transcribed by Mike Stangeland
R:bluegrass
L:1/8
Q:1/4=210
M:4/4
K:G
z6 df |: "G"gd ^AB G2 BG | D2 EF G2 BG | "D"D2 FA d2 de | fd ef d2 ef | "G"gd ^AB G2 BG | 
D2 EF G2 BG | "D"DE FG Ac BA |1 G2 "C"G2 "G"G2 df :|2 G2 "C"G2 "G"G2 EF |: "G"G,2 B,D G2 GA | 
BG Bd g2 ef | gf ed cB AG | "D"AB AG FE DB, | "G"G,2 B,D G2 GA | BG Bd g2 ef | 
gf ed "C"cB AG |1 A"D"G AB "G"G2 EF :|2 A"D"G AB "G"G4 | 


